findly-builder/apps/searchassist/src/assets/icons/resultTemplate/skelton-dummy.svg

<svg width="44" height="39" viewBox="0 0 44 39" fill="none" xmlns="http://www.w3.org/2000/svg">
<path fill-rule="evenodd" clip-rule="evenodd" d="M4.8125 0.375C2.23682 0.375 0.125 2.52905 0.125 5.15625V33.8438C0.125 36.4709 2.23682 38.625 4.8125 38.625H39.1875C41.7632 38.625 43.875 36.4709 43.875 33.8438V5.15625C43.875 2.52905 41.7632 0.375 39.1875 0.375H4.8125ZM4.8125 3.5625H39.1875C40.0664 3.5625 40.75 4.25977 40.75 5.15625V28.3154L30.1787 16.9316C29.9765 16.7139 29.6303 16.7195 29.4352 16.9435L23.6968 23.5342L14.6636 13.8184C14.4613 13.6009 14.1153 13.6065 13.9203 13.8305L3.25 26.0867V5.15625C3.25 4.25977 3.93359 3.5625 4.8125 3.5625ZM31.375 6.75C29.6538 6.75 28.25 8.18189 28.25 9.9375C28.25 11.6931 29.6538 13.125 31.375 13.125C33.0962 13.125 34.5 11.6931 34.5 9.9375C34.5 8.18189 33.0962 6.75 31.375 6.75ZM14.3584 18.1179L30.4595 35.4375H4.8125C3.93359 35.4375 3.25 34.7402 3.25 33.8438V30.8928L14.3584 18.1179ZM29.8613 21.2432L40.75 32.9473V33.8438C40.75 34.7402 40.0664 35.4375 39.1875 35.4375H34.7563L25.8574 25.8501L29.8613 21.2432Z" fill="#BDC1C6"/>
</svg>

<svg width="44" height="39" fill="none" xmlns="http://www.w3.org/2000/svg"><path fill-rule="evenodd" clip-rule="evenodd" d="M4.813.375C2.236.375.125 2.529.125 5.156v28.688c0 2.627 2.112 4.781 4.688 4.781h34.374c2.576 0 4.688-2.154 4.688-4.781V5.156c0-2.627-2.112-4.781-4.688-4.781H4.813Zm0 3.188h34.374c.88 0 1.563.697 1.563 1.593v23.16L30.179 16.931a.5.5 0 0 0-.744.012l-5.738 6.59-9.033-9.716a.5.5 0 0 0-.744.013L3.25 26.087V5.157c0-.897.684-1.595 1.563-1.595ZM31.375 6.75c-1.721 0-3.125 1.432-3.125 3.188 0 1.755 1.404 3.187 3.125 3.187S34.5 11.693 34.5 9.937c0-1.755-1.404-3.187-3.125-3.187ZM14.358 18.118l16.101 17.32H4.813c-.88 0-1.563-.698-1.563-1.594v-2.951l11.108-12.775Zm15.503 3.125L40.75 32.947v.897c0 .896-.684 1.593-1.563 1.593h-4.43l-8.9-9.587 4.004-4.607Z" fill="#BDC1C6"/></svg>
